icons/mask-off.svg

<svg width="24" height="24" viewBox="0 0 24 24" fill="none" xmlns="http://www.w3.org/2000/svg">
<g clip-path="url(#clip0)">
<path fill-rule="evenodd" clip-rule="evenodd" d="M0.292893 0.292893C0.683417 -0.0976311 1.31658 -0.0976311 1.70711 0.292893L23.7071 22.2929C24.0976 22.6834 24.0976 23.3166 23.7071 23.7071C23.3166 24.0976 22.6834 24.0976 22.2929 23.7071L16.9445 18.3587L12.4913 20.871C12.1864 21.043 11.8136 21.043 11.5087 20.871L6.19086 17.871C6.16962 17.859 6.14883 17.8462 6.12853 17.8327C5.07526 17.1324 4.2217 16.1532 3.67383 15H2.5C1.11929 15 1.49012e-08 13.8807 1.49012e-08 12.5V8C1.49012e-08 7.44772 0.447715 7 1 7H3V6C3 5.57929 3.26252 5.20808 3.64927 5.06348L0.292893 1.70711C-0.0976311 1.31658 -0.0976311 0.683417 0.292893 0.292893ZM5 6.78078L5.29325 6.70746L15.4764 16.8906L12 18.8518L7.20686 16.1478C5.87342 15.2478 5 13.7257 5 12V6.78078ZM3 9H2V12.5C2 12.7761 2.22386 13 2.5 13H3V9ZM11.7575 3.02986C11.9167 2.99005 12.0833 2.99005 12.2425 3.02986L20.2425 5.02986C20.6877 5.14115 21 5.54113 21 6V7H23C23.5523 7 24 7.44772 24 8V12.5C24 13.8807 22.8807 15 21.5 15H20.3177C20.0566 15.4187 19.5196 15.5898 19.0577 15.3809C18.5545 15.1533 18.331 14.5609 18.5586 14.0577C18.8418 13.4314 19 12.7355 19 12V6.78078L12 5.03078L9.84254 5.57014C9.30674 5.70409 8.76381 5.37833 8.62986 4.84254C8.49591 4.30674 8.82167 3.76381 9.35746 3.62986L11.7575 3.02986ZM21 13V9H22V12.5C22 12.7761 21.7761 13 21.5 13H21Z" fill="black"/>
</g>
<defs>
<clipPath id="clip0">
<rect width="24" height="24" fill="white"/>
</clipPath>
</defs>
</svg>

<svg
  width="24"
  height="24"
  viewBox="0 0 24 24"
  xmlns="http://www.w3.org/2000/svg"
>
  <g clip-path="url(#a)">
    <path
      fill-rule="evenodd"
      clip-rule="evenodd"
      d="M.293.293a1 1 0 0 1 1.414 0l22 22a1 1 0 0 1-1.414 1.414l-5.348-5.348-4.454 2.512a1 1 0 0 1-.982 0l-5.318-3A7.03 7.03 0 0 1 3.674 15H2.5A2.5 2.5 0 0 1 0 12.5V8a1 1 0 0 1 1-1h2V6a1 1 0 0 1 .65-.937L.292 1.707a1 1 0 0 1 0-1.414zM5 6.78l.293-.074 10.183 10.184L12 18.85l-4.793-2.703A4.994 4.994 0 0 1 5 12V6.78zM3 9H2v3.5a.5.5 0 0 0 .5.5H3V9zm8.758-5.97a1 1 0 0 1 .485 0l8 2A1 1 0 0 1 21 6v1h2a1 1 0 0 1 1 1v4.5a2.5 2.5 0 0 1-2.5 2.5h-1.182a1 1 0 0 1-1.76-.942A4.98 4.98 0 0 0 19 12V6.78l-7-1.75-2.157.54a1 1 0 0 1-.486-1.94l2.4-.6zM21 13V9h1v3.5a.5.5 0 0 1-.5.5H21z"
    />
  </g>
  <defs>
    <clipPath id="a">
      <rect width="24" height="24" />
    </clipPath>
  </defs>
</svg>
